icons/bhi_job-circle.svg

<svg xmlns="http://www.w3.org/2000/svg" viewBox="0 0 512 512" enable-background="new 0 0 512 512"><path fill="#010101" d="M256 512c-140.8 0-256-115.2-256-256s115.2-256 256-256 256 115.2 256 256-115.2 256-256 256zm0-471.5c-121.6 0-217.6 96-217.6 217.6s98.1 217.6 217.6 217.6 217.6-98.1 217.6-217.6-98.1-217.6-217.6-217.6z"/><g fill="#010101"><path d="M258.1 320l-119.5-59.7v83.2c0 12.8 10.7 23.5 23.5 23.5h194.1c12.8 0 23.5-10.7 23.5-23.5v-85.3l-121.6 61.8zM258.1 298.7l121.6-59.7v-27.7c0-12.8-10.7-23.5-23.5-23.5h-49.1v-23.5c0-12.8-10.7-23.5-23.5-23.5h-49.1c-12.8 0-23.5 10.7-23.5 23.5v23.5h-49.1c-12.8 0-23.5 10.7-23.5 23.5v27.7l119.7 59.7zm-23.4-134.4h49.1v23.5h-49.1v-23.5zm-12.8 72.5h72.5v19.2l-36.3 19.2-36.2-19.2v-19.2z"/></g></svg>

<?xml version="1.0" encoding="utf-8"?>
<!-- Generator: Adobe Illustrator 19.2.0, SVG Export Plug-In . SVG Version: 6.00 Build 0)  -->
<svg version="1.1" id="Layer_1" xmlns="http://www.w3.org/2000/svg" xmlns:xlink="http://www.w3.org/1999/xlink" x="0px" y="0px"
	 viewBox="0 0 512 512" enable-background="new 0 0 512 512" xml:space="preserve">
<g>
	<path fill="#010101" d="M256,512C115.2,512,0,396.8,0,256S115.2,0,256,0s256,115.2,256,256S396.8,512,256,512z M256,40.5
		c-121.6,0-217.6,96-217.6,217.6S136.5,475.7,256,475.7s217.6-98.1,217.6-217.6S375.5,40.5,256,40.5z"/>
</g>
<g>
	<path fill="#010101" d="M258.1,320l-119.5-59.7v83.2c0,12.8,10.7,23.5,23.5,23.5h194.1c12.8,0,23.5-10.7,23.5-23.5v-85.3L258.1,320
		z"/>
	<path fill="#010101" d="M258.1,298.7l121.6-59.7v-27.7c0-12.8-10.7-23.5-23.5-23.5h-49.1v-23.5c0-12.8-10.7-23.5-23.5-23.5h-49.1
		c-12.8,0-23.5,10.7-23.5,23.5v23.5h-49.1c-12.8,0-23.5,10.7-23.5,23.5v27.7L258.1,298.7z M234.7,164.3h49.1v23.5h-49.1V164.3z
		 M221.9,236.8h72.5V256l-36.3,19.2L221.9,256V236.8z"/>
</g>
</svg>
